X:1
T:The Light Is Come
T:The Light Is Come
T:Hugh Henry McGranahan, 1894
T:Horatius Bonar, 1872, alt.
T:Public Domain Courtesy of the Cyber Hymnal™
T:Public Domain Courtesy of the Cyber Hymnal™
C:Hugh Henry McGranahan, 1894
Z:Public Domain
Z:Courtesy of the Cyber Hymnal™
%%score ( 1 2 ) ( 3 4 )
L:1/8
Q:1/4=103
M:6/8
K:Ab
V:1 treble 
V:2 treble 
V:3 bass 
V:4 bass 
V:1
 [CE]2 [CE] [=B,=D]2 [CE] | [CA]2 [DB] [Ec]3 | [DB]2 [DA] [DG]2 [DF] | [FA]2 [DF] [CE]3 | %4
w: 1.~Out of dark- ness|in- to light|Je- sus calls the|sons of night;|
w: 2.~From the pri- son|house of sin,|From the power with-|out, with- in,|
w: 3.~From this world’s al-|lur- ing snares,|From its per- ils|and its cares;|
w: 4.~From the van- i-|ty of youth|In- to rest and|love and truth,|
 [CE]2 [CE] [DF]2 [CE] | [EA]2 [EB] [Ec]3 | [Ad]2 [Ac] [Fc]2 [FB] | [EA]2 [DG] !fermata![CA]2 || %8
w: Out of mid- night|in- to day|Je- sus bids us|come a- way.|
w: From this mor- tal|wea- ri- ness,|Je- sus calls to|joy and peace.|
w: From its van- i-|ty and strife,|Je- sus beck- ons|us to life.|
w: In- to joy that|ne- ver palls,|Je- sus now in|mer- cy calls.|
"^Refrain" c | (z2 [Ae]2) d x | z2 [Ac]2 [EB] | .[EA]3 .[Ec]3 | [Fd]3- [Fd]2 [EG] | %13
w: |||||
w: A-|* rise||* and|shine! * Thy|
w: |||||
w: |||||
 [EA]2 [EA] [EB]2 [GB] | [Ac]2 [Gd] [Ae][Ed][Ec] | [EB]3 [A=d]3 | [Ge]3- [Ge]2 [Be] | %17
w: ||||
w: light is come; The|glo- ry of the Lord|Is ris-|en * up-|
w: ||||
w: ||||
 [Ae]3- [Ae]2 [Ae] | [Ac]3- [Ac]2 [Ac] | [Ad]3 [Ae]3 | [Af]3- [Af]2 [AB] | [Ac]2 [Ac] [Gd]2 [Gd] | %22
w: |||||
w: on * our|gloom. * A-|rise and|shine! * Thy|light is come, The|
w: |||||
w: |||||
 [Ae]2 [Ae] [Af][Ae][Fd] | [Ec]3 [EB]3 | [EA]6 |] %25
w: |||
w: glo- ry of the Lord|Is ris-|en|
w: |||
w: |||
V:2
 x6 | x6 | x6 | x6 | x6 | x6 | x6 | x5 || x | e3- .A x2 | c3- .A x | x6 | x6 | x6 | x6 | x6 | x6 | %17
 x6 | x6 | x6 | x6 | x6 | x6 | x6 | x6 |] %25
V:3
 [A,,A,]2 [A,,A,] [A,,A,]2 [A,,A,] | [A,,E,]2 [A,,E,] [A,,A,]3 | [D,F,]2 [D,F,] [D,B,]2 [D,A,] | %3
w: ~ ~ ~ ~|~ ~ ~|~ ~ ~ ~|
 [D,A,]2 [D,A,] [A,,A,]3 | [A,,A,]2 [A,,A,] [A,,A,]2 [A,,A,] | [C,A,]2 [E,G,] A,3 | %6
w: ~ ~ ~|~ ~ ~ ~|~ ~ ~|
 [F,A,]2 [F,A,] [F,A,]2 [D,D] | [E,C]2 [E,B,] !fermata![A,,A,]2 || A, | (z2 .A, [A,C]2) B, | %10
w: ~ ~ ~ ~|~ ~ ~|~|~ rise ~|
 z2 [F,A,]2 [G,D] | [A,C]3 A,3 | [D,A,]3- [D,A,]2 [D,B,] | [C,A,]2 [C,A,] [E,G,]2 [E,B,] | %14
w: and shine||||
 A,2 [B,E] [CE][B,E][A,E] | [G,E]3 [F,B,]3 | [E,B,]3- [E,B,]2 [G,D] | [A,C]3- [A,C]2 [A,C] | %18
w: ||||
 [A,E]3- [A,E]2 [_G,E] | [F,D]3 [E,C]3 | [D,D]3- [D,D]2 [DF] | [CE]2 [CE] [B,E]2 [B,D] | %22
w: ||||
 [A,C]2 [A,C] [D,D][D,A,][D,A,] | [E,A,]3 [E,G,D]3 | [A,,A,C]6 |] %25
w: |||
V:4
 x6 | x6 | x6 | x6 | x6 | x3 A,3 | x6 | x5 || x | C3- x3 | A,3- .F, x | x3 A,3 | x6 | x6 | A,2 x4 | %15
 x6 | x6 | x6 | x6 | x6 | x6 | x6 | x6 | x6 | x6 |] %25

